X:1
T:Etude No.11 Op.60
T:Matteo Carcassi (1792 -1853)
%%score { ( 1 2 ) ( 3 4 ) }
L:1/8
Q:1/4=80
M:2/4
K:F
V:1 treble-8 nm="Classical Guitar"
V:2 treble-8 
V:3 tab stafflines=6 strings=E2,A2,D3,G3,B3,E4 nostems nm="Guitare classique [Tablature]"
V:4 tab stafflines=6 strings=E2,A2,D3,G3,B3,E4 nostems 
V:1
"^Agitato""_" E/=B/^c/ | d z z/ A/d/e/ | f z z/ A/d/f/ | a z z/ f/e/d/ | e z z/ A/^c/d/ | %5
 e z z/ A/e/f/ | g z z/ A/^c/e/ | a z z/ g/f/e/ | f z z/ f/e/d/ |"_" c z z/ !4!b/!3!a/!1!g/ | %10
 f z z/ f/e/f/ | !4!g z z/ g/f/g/ | a z z/ f/e/d/ | ^c z z/ g/f/e/ | f z z/ d/f/a/ | %15
 ^g z z/ f/e/d/ | a z z/ a/g/a/ |"_" b z z/ g/f/e/ | a z z/ f/e/d/ | %19
!>(! ^c z!>)!"_dim." z/ g/f/e/ |"_" d z z/ A/=B/^c/ |"_" d z z/ A/d/e/ | %22
 f z z/ A/d/"_cresc."f/ | a z z/ f/e/d/ |"_" _e z z/"^₵3"!<(! B/!2!e/g/!<)! | %25
"_" !4!b z z/ g/f/_e/ | d z z/ A/d/f/ | a z z/!>(! g/f/e/!>)! |"_" d z z2 |] %29
V:2
 z/ z | z/ D/F/A/ D z | z/ D/F/A/ D z | z/ D/F/A/ D z | z/ ^C/E/A/ A, z | z/ A,/^C/E/ A, z | %6
 z/ A,/^C/E/ A, z | z/ ^C/E/A/ A, z | z/ D/F/A/ D z | z/ E/F/G/ C z | z/ A/B/c/ F z | %11
 z/ E/G/c/ C z | z/ F/A/c/ F z | z/ E/F/G/ A, z | z/ F/G/A/ D z | z/ B,/D/E/ F z | %16
 z/ A,/E/^C/ A, z | z/ ^C/E/G/ A, z | z/ D/F/A/ A, z | z/ B/G/E/ ^CA, | z/ D/A/F/ D z | %21
 z/ D/F/A/ D z | z/ D/F/A/ D z | z/ D/F/A/ D z | z/ G,/B,/_E/ G, z | z/ _E/G/B/ E z | %26
 z/ A,/D/F/ A, z | z/"_" ^C/E/A/ A, z | z/ D/A/F/ D z |] %29
V:3
 !3!A,/ !2!=B,/ !2!^C/ | !2!D x x/ !3!A,/ !2!D/ !1!E/ | !1!F x x/ !3!A,/ !2!D/ !1!F/ | %3
 !1!A x x/ !1!F/ !1!E/ !2!D/ | !1!E x x/ !3!A,/ !2!^C/ !2!D/ | !1!E x x/ !3!A,/ !1!E/ !1!F/ | %6
 !1!G x x/ !3!A,/ !2!^C/ !1!E/ | !1!A x x/ !1!G/ !1!F/ !1!E/ | !1!F x x/ !1!F/ !1!E/ !2!D/ | %9
 !2!C x x/ !1!B/ !1!A/ !1!G/ | !1!F x x/ !1!F/ !1!E/ !1!F/ | !1!G x x/ !1!G/ !1!F/ !1!G/ | %12
 !1!A x x/ !2!F/ !1!E/ !2!D/ | !2!^C x x/ !1!G/ !1!F/ !1!E/ | !1!F x x/ !2!D/ !1!F/ !1!A/ | %15
 !1!^G x x/ !1!F/ !1!E/ !2!D/ | !1!A x x/ !1!A/ !1!G/ !1!A/ | !1!B x x/ !1!G/ !1!F/ !1!E/ | %18
 !1!A x x/ !1!F/ !1!E/ !2!D/ | !2!^C x x/ !1!G/ !1!F/ !1!E/ | !2!D x x/ !3!A,/ !2!=B,/ !2!^C/ | %21
 !2!D x x/ !3!A,/ !2!D/ !1!E/ | !1!F x x/ !3!A,/ !2!D/ !1!F/ | !1!A x x/ !1!F/ !1!E/ !2!D/ | %24
 !2!_E x x/ !3!B,/ !2!E/ !1!G/ | !1!B x x/ !1!G/ !2!F/ !2!_E/ | !2!D x x/ !3!A,/ !2!D/ !1!F/ | %27
 !1!A x x/ !1!G/ !1!F/ !1!E/ | !2!D x x2 |] %29
V:4
 x/ x | x/ !4!D,/ !4!F,/ !3!A,/ !4!D, x | x/ !4!D,/ !4!F,/ !3!A,/ !4!D, x | %3
 x/ !4!D,/ !4!F,/ !3!A,/ !4!D, x | x/ !5!^C,/ !4!E,/ !3!A,/ !5!A,, x | %5
 x/ !5!A,,/ !5!^C,/ !4!E,/ !5!A,, x | x/ !5!A,,/ !5!^C,/ !4!E,/ !5!A,, x | %7
 x/ !5!^C,/ !4!E,/ !3!A,/ !5!A,, x | x/ !4!D,/ !4!F,/ !3!A,/ !4!D, x | %9
 x/ !4!E,/ !4!F,/ !3!G,/ !5!C, x | x/ !3!A,/ !3!B,/ !2!C/ !4!F, x | %11
 x/ !4!E,/ !3!G,/ !2!C/ !5!C, x | x/ !4!F,/ !3!A,/ !3!C/ !4!F, x | %13
 x/ !4!E,/ !4!F,/ !3!G,/ !5!A,, x | x/ !4!F,/ !3!G,/ !3!A,/ !4!D, x | %15
 x/ !5!B,,/ !4!D,/ !4!E,/ !4!F, x | x/ !5!A,,/ !4!E,/ !5!^C,/ !5!A,, x | %17
 x/ !5!^C,/ !4!E,/ !3!G,/ !5!A,, x | x/ !4!D,/ !4!F,/ !3!A,/ !5!A,, x | %19
 x/ !3!B,/ !3!G,/ !4!E,/ !5!^C, !5!A,, | x/ !4!D,/ !3!A,/ !4!F,/ !4!D, x | %21
 x/ !4!D,/ !4!F,/ !3!A,/ !4!D, x | x/ !4!D,/ !4!F,/ !3!A,/ !4!D, x | %23
 x/ !4!D,/ !4!F,/ !3!A,/ !4!D, x | x/ !6!G,,/ !5!B,,/ !4!_E,/ !6!G,, x | %25
 x/ !5!_E,/ !4!G,/ !3!B,/ !5!E, x | x/ !5!A,,/ !4!D,/ !4!F,/ !5!A,, x | %27
 x/ !5!^C,/ !4!E,/ !3!A,/ !5!A,, x | x/ !4!D,/ !3!A,/ !4!F,/ !4!D, x |] %29

